src/assets/duotone/TrendUp.svg

<svg width="24" height="24" viewBox="0 0 24 24"  xmlns="http://www.w3.org/2000/svg">
<path opacity="0.4" d="M16.19 2H7.81C4.17 2 2 4.17 2 7.81V16.18C2 19.83 4.17 22 7.81 22H16.18C19.82 22 21.99 19.83 21.99 16.19V7.81C22 4.17 19.83 2 16.19 2Z" />
<path d="M16.8299 9.41047C16.7599 9.24047 16.6199 9.10047 16.4499 9.03047C16.3699 9.00047 16.2799 8.98047 16.1899 8.98047H14.3299C13.9399 8.98047 13.6299 9.29047 13.6299 9.68047C13.6299 10.0705 13.9399 10.3805 14.3299 10.3805H14.5099L12.3999 12.4905L11.3799 10.9705C11.2599 10.8005 11.0799 10.6805 10.8699 10.6605C10.6499 10.6405 10.4599 10.7105 10.3099 10.8605L7.32994 13.8405C7.05994 14.1105 7.05994 14.5505 7.32994 14.8305C7.46994 14.9705 7.63994 15.0305 7.81994 15.0305C7.99994 15.0305 8.17994 14.9605 8.30994 14.8305L10.6899 12.4505L11.7099 13.9705C11.8299 14.1405 12.0099 14.2605 12.2199 14.2805C12.4399 14.3005 12.6299 14.2305 12.7799 14.0805L15.4999 11.3605V11.5405C15.4999 11.9305 15.8099 12.2405 16.1999 12.2405C16.5899 12.2405 16.8999 11.9305 16.8999 11.5405V9.67047C16.8799 9.58047 16.8699 9.49047 16.8299 9.41047Z" />
</svg>

<?xml version="1.0" encoding="UTF-8"?>
<svg width="24" height="24" viewBox="0 0 24 24" xmlns="http://www.w3.org/2000/svg">
 <path d="M16.19 2H7.81C4.17 2 2 4.17 2 7.81V16.18C2 19.83 4.17 22 7.81 22H16.18C19.82 22 21.99 19.83 21.99 16.19V7.81C22 4.17 19.83 2 16.19 2Z" opacity=".4"/>
 <path d="m16.83 9.4105c-0.07-0.17-0.21-0.31-0.38-0.38-0.08-0.03-0.17-0.05-0.26-0.05h-1.86c-0.39 0-0.7 0.31-0.7 0.7 0 0.39003 0.31 0.70003 0.7 0.70003h0.18l-2.11 2.11-1.02-1.52c-0.12-0.17-0.3-0.29-0.51-0.31-0.22-0.02-0.41 0.05-0.56 0.2l-2.98 2.98c-0.27 0.27-0.27 0.71 0 0.99 0.14 0.14 0.31 0.2 0.49 0.2s0.36-0.07 0.49-0.2l2.38-2.38 1.02 1.52c0.12 0.17 0.3 0.29 0.51 0.31 0.22 0.02 0.41-0.05 0.56-0.2l2.72-2.72v0.18c0 0.39 0.31 0.7 0.7 0.7s0.7-0.31 0.7-0.7v-1.87c-0.02-0.09-0.03-0.18-0.07-0.26z"/>
</svg>
